lib/logo_tmp/nrk-logo-nrk-p13-title-below-on-light.svg

<svg width="40" height="35" viewBox="0 0 40 35" fill="none" xmlns="http://www.w3.org/2000/svg">
<path d="M0 14.3333V0.334605H4.59339V14.3333H0ZM10.8428 2.56258L13.4844 14.3333H8.45737L5.30307 0.334605H8.12254C8.76907 0.326214 9.39641 0.554123 9.88691 0.975455C10.3782 1.37911 10.7158 1.93948 10.8428 2.56258ZM14.1744 14.3333V0.334605H18.7678V14.3333H14.1744ZM22.2372 5.65812C21.7422 5.66294 21.2552 5.53343 20.828 5.28346C20.4064 5.03981 20.0563 4.68962 19.8127 4.26803C19.5624 3.84072 19.4329 3.35355 19.4378 2.85837C19.4321 2.3662 19.5618 1.88194 19.8127 1.4585C20.0589 1.04149 20.4086 0.695109 20.828 0.452939C21.2553 0.203253 21.7423 0.073767 22.2372 0.0782812C22.7292 0.0729823 23.2133 0.202584 23.6369 0.452939C24.0521 0.697232 24.3981 1.04332 24.6424 1.4585C24.893 1.88206 25.0226 2.36624 25.0172 2.85837C25.0218 3.35352 24.8923 3.8406 24.6424 4.26803C24.4007 4.68777 24.0542 5.03766 23.6369 5.28346C23.2133 5.53431 22.7289 5.66394 22.2366 5.65812H22.2372ZM25.7269 14.3333V0.334605H30.3207V14.3333H25.7269ZM36.136 7.98461C36.1489 7.99819 36.2475 8.1592 36.4317 8.46765C36.6159 8.7761 36.8558 9.17046 37.1513 9.65067C37.447 10.1307 37.759 10.64 38.0874 11.1787C38.4157 11.7174 38.7247 12.2268 39.0143 12.7067C39.3028 13.1867 39.6313 13.7289 40 14.3333H34.9531C34.6375 13.8207 34.3515 13.3574 34.0952 12.9433C33.8389 12.5293 33.5665 12.0823 33.2778 11.6026C32.9884 11.1233 32.7024 10.6566 32.4196 10.2027C32.1368 9.74879 31.8938 9.35121 31.6905 9.0099C31.4863 8.66837 31.3449 8.43831 31.2663 8.31979C31.0713 8.02568 30.9559 7.68601 30.9315 7.33397C30.951 6.99609 31.0597 6.66947 31.2466 6.3873C31.3254 6.25585 31.47 6.0225 31.6803 5.68732C31.8906 5.35214 32.137 4.95456 32.4196 4.49451C32.7021 4.03446 32.9882 3.56454 33.2778 3.08477C33.5674 2.605 33.8398 2.15477 34.0952 1.73416C34.3519 1.31398 34.6379 0.84735 34.9531 0.334284H40L36.0962 6.70275C35.9754 6.89183 35.9073 7.10974 35.8991 7.33397C35.9121 7.56938 35.9942 7.7957 36.1353 7.98461H36.136Z" fill="#0A2343"/>
<path d="M9.50227 22.1466C9.25988 21.7728 8.9488 21.4483 8.58554 21.1904C8.1806 20.9068 7.73078 20.6935 7.25489 20.5595C6.67724 20.4001 6.07974 20.3239 5.48056 20.3332H0V34.3303H2.07002V29.3032H5.63826C6.44371 29.3157 7.23857 29.1185 7.94484 28.7311C8.62179 28.3563 9.18399 27.8045 9.57126 27.1346C9.98646 26.3953 10.1942 25.5575 10.1726 24.7098C10.1743 24.2517 10.1214 23.795 10.0149 23.3495C9.91253 22.9226 9.73924 22.516 9.50227 22.1466ZM7.66889 26.3953C7.40379 26.8109 7.0138 27.1318 6.55499 27.312C5.99809 27.5228 5.4055 27.6232 4.81026 27.6077H2.07002V22.0487H5.08628C5.66244 22.0268 6.2359 22.1381 6.76203 22.3739C7.18064 22.5762 7.52285 22.908 7.73788 23.3202C7.96571 23.7825 8.07736 24.2934 8.06316 24.8086C8.08578 25.3643 7.94898 25.9149 7.66889 26.3953Z" fill="#0A2343"/>
<path d="M14.3813 20.7964C14.0987 20.9476 13.8228 21.0889 13.5536 21.2203C13.2844 21.3517 13.0116 21.4832 12.7352 21.6146C12.4594 21.746 12.1768 21.8643 11.8874 21.9694C11.598 22.0746 11.2894 22.1797 10.9612 22.2849L11.3946 23.9606C11.7888 23.8423 12.147 23.724 12.469 23.6057C12.7843 23.4901 13.0936 23.3585 13.3956 23.2114C13.6915 23.0669 13.9872 22.9092 14.2827 22.7383L14.2929 22.7324V34.331H16.3429V20.3338H15.2786C14.963 20.4906 14.6639 20.6449 14.3813 20.7964Z" fill="#0A2343"/>
<path d="M27.0871 29.086C26.9504 28.6924 26.7359 28.3304 26.4563 28.0214C26.1657 27.7091 25.8132 27.4608 25.4212 27.2923C24.9723 27.099 24.4974 26.9727 24.0117 26.9178V26.8583C24.6013 26.6709 25.1499 26.3732 25.6283 25.981C26.0551 25.631 26.4071 25.1987 26.6632 24.7098C26.9053 24.2405 27.0305 23.7198 27.028 23.1918C27.0368 22.7435 26.9352 22.2999 26.7322 21.9001C26.5243 21.5137 26.2269 21.1825 25.8648 20.9344C25.4438 20.6478 24.9722 20.4438 24.475 20.3332C23.8639 20.1946 23.2386 20.1284 22.612 20.136C22.1997 20.1374 21.788 20.1671 21.3799 20.2251C20.9574 20.283 20.5392 20.3686 20.128 20.4814C19.7322 20.5884 19.349 20.7371 18.9846 20.9249L19.2605 22.4824C19.5494 22.3641 19.8287 22.2621 20.0984 22.1764C20.368 22.0908 20.6276 22.0218 20.8771 21.9694C21.1266 21.9173 21.3698 21.878 21.6066 21.8515C21.8356 21.8256 22.066 21.8125 22.2965 21.8121C22.7136 21.8053 23.1302 21.8448 23.5385 21.93C23.8345 21.9897 24.1159 22.107 24.3665 22.2754C24.5708 22.4193 24.7312 22.6171 24.8299 22.8467C24.934 23.1067 24.9843 23.385 24.9777 23.6649C24.9833 24.0495 24.8918 24.4294 24.7115 24.7692C24.5282 25.1041 24.2722 25.3938 23.9624 25.6169C23.613 25.8666 23.2227 26.0534 22.8091 26.1689C22.3282 26.305 21.8303 26.3713 21.3305 26.3661H20.956L20.7194 27.9041H21.3503C21.932 27.8961 22.5131 27.9456 23.0851 28.052C23.5134 28.1286 23.9241 28.2822 24.2975 28.5054C24.6029 28.6915 24.8517 28.9573 25.0171 29.2743C25.1819 29.615 25.263 29.9901 25.2537 30.3684C25.2637 30.7511 25.1897 31.1313 25.0368 31.4823C24.8902 31.7934 24.6619 32.059 24.3764 32.2508C24.0348 32.4735 23.6532 32.6275 23.2527 32.7042C22.7239 32.8102 22.1852 32.8598 21.6459 32.8521C21.4488 32.8521 21.2546 32.8458 21.0644 32.8327C20.8741 32.8195 20.6731 32.7998 20.4631 32.7732C20.2532 32.7466 20.0324 32.7114 19.8027 32.6651C19.573 32.6188 19.3197 32.5636 19.0437 32.4972L18.7874 34.1729C19.0763 34.2255 19.3556 34.2748 19.6253 34.3208C19.8949 34.3668 20.161 34.4062 20.4237 34.4391C20.6865 34.4715 20.9428 34.4944 21.1925 34.5078C21.4423 34.5211 21.6854 34.5278 21.922 34.5278C22.5502 34.5327 23.1775 34.4765 23.7948 34.3599C24.3195 34.2622 24.8274 34.0897 25.303 33.8476C25.7182 33.6367 26.0921 33.3529 26.4069 33.0098C26.7032 32.6801 26.9311 32.2947 27.0772 31.8762C27.2336 31.4161 27.3102 30.9328 27.3039 30.4469C27.3099 29.9842 27.2366 29.5239 27.0871 29.086Z" fill="#0A2343"/>
</svg>

<svg xmlns="http://www.w3.org/2000/svg" viewBox="0 0 40 35"><path fill="#0A2343" d="M0 14.333V.335h4.593v13.998H0Zm10.843-11.77 2.641 11.77H8.457L5.303.335h2.82a2.655 2.655 0 0 1 1.764.64c.491.404.829.964.956 1.588Zm3.331 11.77V.335h4.594v13.998h-4.594Zm8.063-8.675a2.738 2.738 0 0 1-1.409-.375 2.778 2.778 0 0 1-1.015-1.015 2.735 2.735 0 0 1-.375-1.41 2.685 2.685 0 0 1 .375-1.4A2.812 2.812 0 0 1 23.637.454c.415.244.761.59 1.005 1.005.251.424.38.908.375 1.4.005.496-.125.983-.375 1.41a2.8 2.8 0 0 1-1.005 1.015c-.424.251-.908.38-1.4.375Zm3.49 8.675V.335h4.594v13.998h-4.594Zm10.409-6.348c.013.013.111.174.296.483.184.308.424.702.72 1.183a386.846 386.846 0 0 1 1.862 3.056c.289.48.617 1.022.986 1.626h-5.047l-.858-1.39c-.256-.414-.529-.86-.817-1.34-.29-.48-.576-.946-.858-1.4a71.148 71.148 0 0 1-.73-1.193 21.112 21.112 0 0 0-.424-.69 2.04 2.04 0 0 1-.334-.986c.019-.338.128-.665.315-.947.078-.131.223-.364.433-.7a216.7 216.7 0 0 0 1.598-2.603l.817-1.35.858-1.4H40l-3.904 6.369c-.12.189-.189.407-.197.631.013.235.095.462.236.65h.001ZM9.502 22.147a3.524 3.524 0 0 0-.916-.957 4.397 4.397 0 0 0-1.331-.63 6.303 6.303 0 0 0-1.774-.227H0V34.33h2.07v-5.027h3.568c.806.013 1.6-.184 2.307-.572a4.264 4.264 0 0 0 1.626-1.596c.415-.74.623-1.578.602-2.425a5.759 5.759 0 0 0-.158-1.36 3.921 3.921 0 0 0-.513-1.203ZM7.67 26.395a2.333 2.333 0 0 1-1.114.917 4.59 4.59 0 0 1-1.745.296H2.07v-5.56h3.016a3.75 3.75 0 0 1 1.676.326c.419.202.76.534.976.946.228.462.34.973.325 1.489a2.915 2.915 0 0 1-.394 1.586ZM14.381 20.796c-.282.152-.558.293-.827.424-.27.132-.542.263-.819.395-.276.131-.558.25-.848.354-.289.106-.598.21-.926.316l.434 1.676a18.81 18.81 0 0 0 1.074-.355c.315-.116.625-.248.927-.395.295-.144.591-.302.887-.473l.01-.006v11.599h2.05V20.334h-1.064c-.316.157-.615.31-.898.462ZM27.087 29.086a3.105 3.105 0 0 0-.63-1.065 3.07 3.07 0 0 0-1.036-.729 4.978 4.978 0 0 0-1.41-.374v-.06a4.883 4.883 0 0 0 1.617-.877c.427-.35.78-.782 1.035-1.271.242-.47.367-.99.365-1.518a2.735 2.735 0 0 0-.296-1.292 2.75 2.75 0 0 0-.867-.966 4.021 4.021 0 0 0-1.39-.6 7.985 7.985 0 0 0-1.863-.198 9.722 9.722 0 0 0-2.484.345 5.8 5.8 0 0 0-1.143.444l.276 1.557c.288-.118.568-.22.837-.306a7.833 7.833 0 0 1 1.508-.325c.23-.025.46-.039.69-.039.418-.007.834.033 1.242.118a2.3 2.3 0 0 1 .828.345c.205.144.365.342.464.572.104.26.154.538.148.818.005.384-.086.764-.267 1.104-.183.335-.439.625-.749.848-.349.25-.74.436-1.153.552a5.23 5.23 0 0 1-1.479.197h-.374l-.237 1.538h.631a8.823 8.823 0 0 1 1.735.148c.428.077.84.23 1.212.453.306.187.555.452.72.77.165.34.246.715.237 1.093.01.383-.064.763-.217 1.114a1.903 1.903 0 0 1-.66.769 3.138 3.138 0 0 1-1.124.453 7.622 7.622 0 0 1-1.607.148c-.197 0-.391-.006-.582-.02-.19-.013-.39-.032-.6-.059a9.187 9.187 0 0 1-.661-.108 20.88 20.88 0 0 1-.76-.168l-.256 1.676c.29.052.569.102.838.148.27.046.536.085.799.118.262.032.519.055.768.069.25.013.493.02.73.02a9.684 9.684 0 0 0 1.873-.168 5.574 5.574 0 0 0 1.508-.512c.415-.211.79-.495 1.104-.838.296-.33.524-.715.67-1.134.157-.46.233-.943.227-1.43a4.05 4.05 0 0 0-.217-1.36Z"/></svg>
